icons/svg/microsoft.svg

<svg width="24" height="24" viewBox="0 0 24 24" fill="none" xmlns="http://www.w3.org/2000/svg">
<path d="M12 3.75H5.75C4.64543 3.75 3.75 4.64543 3.75 5.75V12M12 3.75H18.25C19.3546 3.75 20.25 4.64543 20.25 5.75V12M12 3.75V20.25M12 20.25H18.25C19.3546 20.25 20.25 19.3546 20.25 18.25V12M12 20.25H5.75C4.64543 20.25 3.75 19.3546 3.75 18.25V12M3.75 12H20.25" stroke="currentColor" stroke-width="1.5" stroke-linecap="round" stroke-linejoin="round"/>
</svg>

<svg xmlns="http://www.w3.org/2000/svg" width="24" height="24" fill="none" viewBox="0 0 24 24"><path stroke="currentColor" stroke-linecap="round" stroke-linejoin="round" stroke-width="1.5" d="M12 3.75H5.75a2 2 0 0 0-2 2V12M12 3.75h6.25a2 2 0 0 1 2 2V12M12 3.75v16.5m0 0h6.25a2 2 0 0 0 2-2V12M12 20.25H5.75a2 2 0 0 1-2-2V12m0 0h16.5"/></svg>
